X:1
T:Johnson Boys
M:4/4
L:1/4
K:E
 G B B3/2 B/2| B/2B/2 G F E| G B B3/2 B/2| B G F2| G B B/2 B3/2| B G F E|\
 G F E E/2E/2| C C B, z| E E G/2G/2 F| E E/2E/2 G z| E E G/2G/2 E|\
 C C/2C/2 B, z|
